src/images/icons/menu-banner-decoration.svg

<svg xmlns="http://www.w3.org/2000/svg" width="11" height="56" viewBox="0 0 11 56" >
  <path d="M0.425781 0H10.4258L0.425781 7.93333L10.4258 15.4L0.425781 23.3333L10.4258 30.3333L0.425781 37.8L10.4258 42.9333L0.425781 48.5333L10.4258 56H0.425781V0Z" fill="#FFF2F4" transform="scale(1.3)"></path>
</svg>

<svg xmlns="http://www.w3.org/2000/svg" width="11" height="56" viewBox="0 0 11 56" >
  <path d="M.426 0h10l-10 7.933 10 7.467-10 7.933 10 7-10 7.467 10 5.133-10 5.6 10 7.467h-10V0z" fill="#FFF2F4" transform="scale(1)"></path>
</svg>
